X:1
T: Polska efter Sven Anders Ersson
C: Sven Anders Ersson
R: Polska
S: Utlärd av Jonas Hjalmarsson
Z: Karin Arén
M: 3/4
L: 1/8
K: D
|: vfe f2 df | u(ec) A3 u(c | B)G AF (EC) | v(3(DEF) u([E4A,4] | [EA,])u.[DG,] v[E3A,3] uA|
vfe f2 df | u(ec) A3 u(c | B)G AF (EC) | v(3(DEF) uD4 :|
v.A2 .a2 vb(a | a)v(f a)a gg | vf2 u.(a2 b)v(a | a)f fd ec |
ve2 u.(da) b(a | a)v(f a)a gg | vf2 dd u(cA) | v(ce) u[d4,f4] :|

